svgs/vvs.svg

<svg xmlns="http://www.w3.org/2000/svg" viewBox="0 0 416 416"><path d="M176.352 344.298c-30.329-5.444-56.244-19.017-77.286-40.476-20.056-20.453-32.792-45.344-37.75-73.776-1.881-10.786-1.881-33.48 0-44.265 7.738-44.377 35.846-81.866 76.036-101.416 20.904-10.168 34.166-13.395 58.169-14.156 20.711-.656 31.871.872 49.821 6.822 20.813 6.899 37.059 16.728 53.08 32.117 25.057 24.067 40.076 55.811 42.131 89.047l.605 9.782-12.403-.282-12.403-.282-.235-5c-1.295-27.537-13.321-54.352-33.367-74.398-33.705-33.705-84.925-43.479-128.889-24.594-26.746 11.488-48.851 33.41-60.201 59.702-22.687 52.555-3.042 112.359 46.808 142.5 27.396 16.564 62.574 20.715 94.73 11.179 3.765-1.117 6.977-1.886 7.137-1.71 1.547 1.704 8.604 21.124 7.913 21.778-1.617 1.533-16.707 5.796-26.322 7.436-11.726 1.999-36.412 1.995-47.574-.008Zm144.787-59.437c-6.797-.895-12.172-3.059-14.791-5.952-1.921-2.123-4.543-9.111-3.843-10.243.256-.414 4.488-.753 9.406-.753 7.475 0 8.941.259 8.941 1.577 0 2.819 5.563 7.423 8.968 7.423 3.657 0 8.032-3.824 8.032-7.02 0-5.176-1.657-6.24-16.099-10.334-10.968-3.11-14.498-4.966-16.384-8.613-2.145-4.147-1.912-10.657.521-14.594 3.357-5.433 9.729-7.881 21.536-8.275 11.558-.385 17.006.771 21.516 4.566 2.915 2.453 5.91 7.66 5.91 10.277 0 .702-3.017.971-8.75.782-8.187-.27-8.771-.432-9.067-2.519-.508-3.571-5.076-6.549-9.057-5.903-5.975.97-8.591 5.028-6.164 9.562 1.163 2.173 3.686 3.214 16.038 6.615 14.935 4.113 18 6.855 18 16.102 0 10.98-6.962 16.441-22.5 17.653-3.3.257-8.796.099-12.213-.351Zm-149.845-13.166a11923.8 11923.8 0 0 0-10.526-27.09c-4.142-10.62-5.419-14.945-4.517-15.292.693-.265 5.219-.351 10.059-.191l8.799.291 5.363 18.441c2.949 10.143 5.816 18.896 6.371 19.45 1.908 1.908 3.381-1.288 9.057-19.644l5.642-18.247 7.81-.295c4.296-.162 8.126.063 8.512.5.386.438-3.903 12.72-9.532 27.295l-10.234 26.5-11.026.282-11.027.282Zm80.638 10.369c-1.485-2.776-20.08-51.123-20.08-52.21 0-1.258 18.712-1.216 19.49.044.335.541 2.985 9.204 5.89 19.25 6.998 24.207 7.095 24.209 14.54.265 3.079-9.9 5.957-18.562 6.398-19.25.531-.83 3.505-1.25 8.857-1.25 7.192 0 8.006.188 7.575 1.75-.738 2.67-18.824 49.505-19.888 51.5-.797 1.495-2.451 1.75-11.362 1.75-9.124 0-10.554-.231-11.42-1.849Z" fill="#010101"/></svg>

<svg
    xmlns="http://www.w3.org/2000/svg"
    viewBox="0 0 416 416"
    id="vector">
    <path
        id="path_6"
        d="M 176.352 344.298 C 146.023 338.854 120.108 325.281 99.066 303.822 C 79.01 283.369 66.274 258.478 61.316 230.046 C 59.435 219.26 59.435 196.566 61.316 185.781 C 69.054 141.404 97.162 103.915 137.352 84.365 C 158.256 74.197 171.518 70.97 195.521 70.209 C 216.232 69.553 227.392 71.081 245.342 77.031 C 266.155 83.93 282.401 93.759 298.422 109.148 C 323.479 133.215 338.498 164.959 340.553 198.195 L 341.158 207.977 L 328.755 207.695 L 316.352 207.413 L 316.117 202.413 C 314.822 174.876 302.796 148.061 282.75 128.015 C 249.045 94.31 197.825 84.536 153.861 103.421 C 127.115 114.909 105.01 136.831 93.66 163.123 C 70.973 215.678 90.618 275.482 140.468 305.623 C 167.864 322.187 203.042 326.338 235.198 316.802 C 238.963 315.685 242.175 314.916 242.335 315.092 C 243.882 316.796 250.939 336.216 250.248 336.87 C 248.631 338.403 233.541 342.666 223.926 344.306 C 212.2 346.305 187.514 346.301 176.352 344.298 Z M 321.139 284.861 C 314.342 283.966 308.967 281.802 306.348 278.909 C 304.427 276.786 301.805 269.798 302.505 268.666 C 302.761 268.252 306.993 267.913 311.911 267.913 C 319.386 267.913 320.852 268.172 320.852 269.49 C 320.852 272.309 326.415 276.913 329.82 276.913 C 333.477 276.913 337.852 273.089 337.852 269.893 C 337.852 264.717 336.195 263.653 321.753 259.559 C 310.785 256.449 307.255 254.593 305.369 250.946 C 303.224 246.799 303.457 240.289 305.89 236.352 C 309.247 230.919 315.619 228.471 327.426 228.077 C 338.984 227.692 344.432 228.848 348.942 232.643 C 351.857 235.096 354.852 240.303 354.852 242.92 C 354.852 243.622 351.835 243.891 346.102 243.702 C 337.915 243.432 337.331 243.27 337.035 241.183 C 336.527 237.612 331.959 234.634 327.978 235.28 C 322.003 236.25 319.387 240.308 321.814 244.842 C 322.977 247.015 325.5 248.056 337.852 251.457 C 352.787 255.57 355.852 258.312 355.852 267.559 C 355.852 278.539 348.89 284 333.352 285.212 C 330.052 285.469 324.556 285.311 321.139 284.861 Z M 171.294 271.695 C 168.682 264.94 163.945 252.749 160.768 244.605 C 156.626 233.985 155.349 229.66 156.251 229.313 C 156.944 229.048 161.47 228.962 166.31 229.122 L 175.109 229.413 L 180.472 247.854 C 183.421 257.997 186.288 266.75 186.843 267.304 C 188.751 269.212 190.224 266.016 195.9 247.66 L 201.542 229.413 L 209.352 229.118 C 213.648 228.956 217.478 229.181 217.864 229.618 C 218.25 230.056 213.961 242.338 208.332 256.913 L 198.098 283.413 L 187.072 283.695 L 176.045 283.977 Z M 251.932 282.064 C 250.447 279.288 231.852 230.941 231.852 229.854 C 231.852 228.596 250.564 228.638 251.342 229.898 C 251.677 230.439 254.327 239.102 257.232 249.148 C 264.23 273.355 264.327 273.357 271.772 249.413 C 274.851 239.513 277.729 230.851 278.17 230.163 C 278.701 229.333 281.675 228.913 287.027 228.913 C 294.219 228.913 295.033 229.101 294.602 230.663 C 293.864 233.333 275.778 280.168 274.714 282.163 C 273.917 283.658 272.263 283.913 263.352 283.913 C 254.228 283.913 252.798 283.682 251.932 282.064 Z"
        fill="#010101"
        stroke-width="1"/>
</svg>
